overrides/.icons/clangen/cat-head.svg

<?xml version="1.0" encoding="UTF-8" standalone="no"?>
<!-- Created with Inkscape (http://www.inkscape.org/) -->

<svg
        xmlns:inkscape="http://www.inkscape.org/namespaces/inkscape"
        xmlns:sodipodi="http://sodipodi.sourceforge.net/DTD/sodipodi-0.dtd"
        version="1.1"
        id="svg1"
        width="17"
        height="17"
        viewBox="0 0 17 17"
        sodipodi:docname="cat_icon.svg"
        inkscape:version="1.3.2 (091e20e, 2023-11-25, custom)"
        xmlns="http://www.w3.org/2000/svg">
    <defs
            id="defs1"/>
    <sodipodi:namedview
            id="namedview1"
            pagecolor="#505050"
            bordercolor="#ffffff"
            borderopacity="1"
            inkscape:showpageshadow="0"
            inkscape:pageopacity="0"
            inkscape:pagecheckerboard="1"
            inkscape:deskcolor="#505050"
            showgrid="true"
            inkscape:zoom="22.627417"
            inkscape:cx="4.1321552"
            inkscape:cy="6.0766989"
            inkscape:window-width="1920"
            inkscape:window-height="991"
            inkscape:window-x="-9"
            inkscape:window-y="-9"
            inkscape:window-maximized="1"
            inkscape:current-layer="g1">
        <inkscape:grid
                id="grid1"
                units="px"
                originx="0"
                originy="0"
                spacingx="1"
                spacingy="1"
                empcolor="#0099e5"
                empopacity="0.30196078"
                color="#0099e5"
                opacity="0.14901961"
                empspacing="5"
                dotted="false"
                gridanglex="30"
                gridanglez="30"
                visible="true"/>
    </sodipodi:namedview>
    <g
            inkscape:groupmode="layer"
            inkscape:label="Image"
            id="g1">
        <path
                id="path1"
                style="display:inline;opacity:1;fill:#000000;stroke-width:1.66667"
                d="m 1,1 v 11.666667 h 1.6666667 v 1.666666 H 4.3333333 V 16 h 8.3333337 v -1.666667 h 1.666666 V 12.666667 H 16 V 1 H 14.333333 V 2.6666667 H 12.666667 V 4.3333333 H 4.3333333 V 2.6666667 H 2.6666667 V 1 Z M 4.3333333,7.6666667 H 6 V 11 H 4.3333333 Z m 6.6666667,0 h 1.666667 V 11 H 11 Z"/>
    </g>
</svg>

<svg width="17" height="17" version="1.1" viewBox="0 0 17 17" xmlns="http://www.w3.org/2000/svg"><path d="m1 1v11.667h1.6667v1.6667h1.6667v1.6667h8.3333v-1.6667h1.6667v-1.6667h1.6667v-11.667h-1.6667v1.6667h-1.6667v1.6667h-8.3333v-1.6667h-1.6667v-1.6667zm3.3333 6.6667h1.6667v3.3333h-1.6667zm6.6667 0h1.6667v3.3333h-1.6667z" fill="currentColor" stroke-width="1.6667"/></svg>
